X: 1441
T: Ne Küstün Bî-sebep Öyle
C: Şekerci Cemil Bey
O: Turkey
F: http://compmusic.upf.edu/node/140
N: hicaz-uzzal--sarki--curcuna--ne_kustun--sekerci_cemil_bey
N: makam= hicaz-uzzal
N: form= sarki
N: usul= curcuna = 10/8
M: 10/8
L: 1/16
K: C _7/8B ^f ^c 
Q: 1/4=180
%%MIDI tuningsystem comma53
a4 =c'2=b2 a2g2 f2e4f2  | g4 b2a2 g2=f2 e2d4e2  | \
w:  ARANAĞME  |   | 
=f4 a2g2 f2e2 d2c2 B2A2  | 
w:   | 
A3B c2d2 e2f2 g2a6  | a4 =c'2=b2 a2g2 f2e4f2  | \
w:   |  ARANAĞME  | 
g4 b2a2 g2=f2 e2d4e2  | 
w:   | 
=f4 a2g2 f2e2 d2c2 B2A2  | A2B2 d2c2 B2B2 A2A6  | \
w:   |   | 
z4 G2A4A8z2  | 
w:  Ne  küs tün   | 
e2d2 c2d2 e2e2 d2e6  | e4 g2=f2 e2f4e2 d4  | \
w:  bî   |  *  se bep  *  öy  | 
e4 d2c4d2 e2c2 B2A2  | 
w:  le    | 
A4 G2A4A4a6  | g2f2 g2(3=f2e2f2(3e2d2e2dc BAB2  | \
w:  *  Ni çin  üz  |  dün   | 
B2A2 d2cB c2B2 A2A6  | 
w:  *  *  be ni  *  *  böy  | 
A8-A2g2 f^ef4z2  | z4 d2f4f8-f2  | g4 f2^e4f4e2 d4  | \
w:  le   SAZ  |  Sü kût  et  |  me   | 
d4 e2e2 d2d2 c2=B4c2  | 
w:  *  a man  *  söy  | 
d4 e2{f}e2 d2c2 =B2A6  | z4 A2d4d8-d2  | \
w:  le    |  Sü kût  et  | 
e2f2 g2e2 g2f3ed6  | d4 e2=f2 e2f2 e2d6  | 
w:  me   |  *  a man  *  söy  | 
c4 d14z2  | z4 d2e2 f2a4g4f2  | g4 =f2e4f4e2 d4  | \
w:  le    |  Ne  gör *  dün   |  a  | 
d4 e2=f4f2 e2d2 c2B2  | 
w:  *  şi nâ lık  | 
c8-c2d2 e2c2 B2A2  | A4 G2A4A4a6  | g2f2 g2(3=f2e2f2(3e2d2e2dc BAB2  | 
w:  tan    |  *  Ne  bul dun   |  bî  | 
B2A2 d2cB c2B2 A2A6  | A8-A2B2 c2A6  | \
w:  *  *  ve fâ *  *  lık  |  tan   SAZ  | 
a4 =c'2=b2 a2g2 f2e4f2  | 
w:  ARANAĞME  | 
g4 b2a2 g2=f2 e2d4e2  | =f4 a2g2 f2e2 d2c2 B2A2  | \
w:   |   | 
A3B c2d2 e2f2 g2a6  | 
w:   | 
a4 =c'2=b2 a2g2 f2e4f2  | g4 b2a2 g2=f2 e2d4e2  | \
w:  ARANAĞME  |   | 
=f4 a2g2 f2e2 d2c2 B2A2  | 
w:   | 
A2B2 d2c2 B2B2 A2A6  | z4 G2A4A8z2  | \
w:   |  Ne  küs tün   | 
e2d2 c2d2 e2e2 d2e6  | 
w:  bî   | 
e4 g2=f2 e2f4e2 d4  | e4 d2c4d2 e2c2 B2A2  | \
w:  *  se bep  *  öy  |  le    | 
A4 G2A4A4a6  | g2f2 g2(3=f2e2f2(3e2d2e2dc BAB2  | 
w:  *  Ni çin  üz  |  dün   | 
B2A2 d2cB c2B2 A2A6  | A8-A2g2 f^ef4z2  | \
w:  *  *  be ni  *  *  böy  |  le   SAZ  | 
z4 d2f4f8-f2  | 
w:  Sü kût  et  | 
g4 f2^e4f4e2 d4  | d4 e2e2 d2d2 c2=B4c2  | \
w:  me   |  *  a man  *  söy  | 
d4 e2{f}e2 d2c2 =B2A6  | 
w:  le    | 
z4 A2d4d8-d2  | e2f2 g2e2 g2f3ed6  | \
w:  Sü kût  et  |  me   | 
d4 e2=f2 e2f2 e2d6  | c4 d14z2  | 
w:  *  a man  *  söy  |  le    | 
z4 d2e2 f2a4g4f2  | g4 =f2e4f4e2 d4  | \
w:  Ne  gör *  dün   |  a  | 
d4 e2=f4f2 e2d2 c2B2  | 
w:  *  şi nâ lık  | 
c8-c2d2 e2c2 B2A2  | A4 G2A4A4a6  | g2f2 g2(3=f2e2f2(3e2d2e2dc BAB2  | 
w:  tan    |  *  Ne  bul dun   |  bî  | 
B2A2 d2cB c2B2 A2A6  | A4 =f2e2 d2c2 B2A4z2  | |


